assets/support_icon.svg

<svg width="36" height="36" viewBox="0 0 36 36" fill="none" xmlns="http://www.w3.org/2000/svg">
<path d="M27.9952 0.173279C25.4369 0.162462 20.2122 0.205732 17.6971 2.72616L17.1779 3.24539C14.2031 6.23638 14.0193 10.7418 16.3991 13.9762L1.68752 27.3031C0.513842 28.4768 -1.02763 31.6408 1.68752 34.356C4.40266 37.0711 7.6154 35.5242 8.78367 34.356C8.78367 34.356 18.4273 23.8091 19.2548 22.8896C20.0824 21.9647 19.6443 20.9858 19.6443 20.9858C19.6443 20.9858 17.9189 18.6384 17.0048 17.2214C16.5072 16.4479 16.7344 16.3397 17.4375 16.7887C19.2062 17.9191 21.11 19.0603 21.7644 19.4281C21.8185 19.4605 21.9916 19.5849 22.0241 19.6012C22.0403 19.612 22.0511 19.6336 22.0673 19.6444C25.2909 22.0621 29.8017 21.862 32.7981 18.8656L33.3173 18.3464C35.7566 15.9071 35.8161 10.7851 35.8269 8.17809C35.8324 7.34515 35.2212 7.8752 35.2212 7.8752C35.2212 7.8752 30.8672 12.2724 30.4183 12.7214C29.9694 13.1703 28.4712 13.1108 28.4712 13.1108C28.4712 13.1108 24.5012 12.6889 23.9279 12.1156C23.3546 11.5423 22.9327 7.35597 22.9327 7.35597C22.9327 7.35597 22.8354 6.19852 23.4087 5.6252C23.982 5.05189 28.2548 0.779048 28.2548 0.779048C28.2548 0.779048 28.7903 0.178687 27.9952 0.173279ZM5.62502 27.9089C6.99341 27.9089 8.09137 29.0068 8.09137 30.3752C8.09137 31.7436 6.99341 32.8415 5.62502 32.8415C4.25663 32.8415 3.15867 31.7436 3.15867 30.3752C3.15867 29.0068 4.25663 27.9089 5.62502 27.9089Z" fill="#50ABFF"/>
</svg>

<?xml version="1.0" encoding="utf-8"?>
<!-- Generator: Adobe Illustrator 22.0.1, SVG Export Plug-In . SVG Version: 6.00 Build 0)  -->
<svg version="1.1" id="Layer_1" xmlns="http://www.w3.org/2000/svg" xmlns:xlink="http://www.w3.org/1999/xlink" x="0px" y="0px"
	 viewBox="0 0 36 36" style="enable-background:new 0 0 36 36;" xml:space="preserve">
<style type="text/css">
	.st0{fill:#E7B00C;}
</style>
<g id="Layer_1_1_">
	<path class="st0" d="M28,0.2c-2.6,0-7.8,0-10.3,2.6l-0.5,0.5c-3,3-3.2,7.5-0.8,10.7L1.7,27.3c-1.2,1.2-2.7,4.3,0,7.1
		c2.7,2.7,5.9,1.2,7.1,0c0,0,9.6-10.5,10.5-11.5c0.8-0.9,0.4-1.9,0.4-1.9s-1.7-2.3-2.6-3.8c-0.5-0.8-0.3-0.9,0.4-0.4
		c1.8,1.1,3.7,2.3,4.3,2.6c0.1,0,0.2,0.2,0.3,0.2l0,0c3.2,2.4,7.7,2.2,10.7-0.8l0.5-0.5c2.4-2.4,2.5-7.6,2.5-10.2
		c0-0.8-0.6-0.3-0.6-0.3s-4.4,4.4-4.8,4.8C30,13,28.5,13,28.5,13s-4-0.4-4.5-1c-0.6-0.6-1-4.8-1-4.8S22.9,6,23.5,5.5
		c0.6-0.6,4.8-4.8,4.8-4.8S28.8,0.2,28,0.2z M5.6,27.9c1.4,0,2.5,1.1,2.5,2.5S7,32.8,5.6,32.8s-2.5-1.1-2.5-2.5S4.3,27.9,5.6,27.9z"
		/>
</g>
</svg>
